bernoullicharts/exp_-x_alt_series__mean.svg

<?xml version="1.0" encoding="utf-8" standalone="no"?>
<!DOCTYPE svg PUBLIC "-//W3C//DTD SVG 1.1//EN"
  "http://www.w3.org/Graphics/SVG/1.1/DTD/svg11.dtd">
<!-- Created with matplotlib (https://matplotlib.org/) -->
<svg height="345.6pt" version="1.1" viewBox="0 0 460.8 345.6" width="460.8pt" xmlns="http://www.w3.org/2000/svg" xmlns:xlink="http://www.w3.org/1999/xlink">
 <defs>
  <style type="text/css">
*{stroke-linecap:butt;stroke-linejoin:round;}
  </style>
 </defs>
 <g id="figure_1">
  <g id="patch_1">
   <path d="M 0 345.6 
L 460.8 345.6 
L 460.8 0 
L 0 0 
z
" style="fill:#ffffff;"/>
  </g>
  <g id="axes_1">
   <g id="patch_2">
    <path d="M 57.6 307.584 
L 414.72 307.584 
L 414.72 41.472 
L 57.6 41.472 
z
" style="fill:#ffffff;"/>
   </g>
   <g id="matplotlib.axis_1">
    <g id="xtick_1">
     <g id="line2d_1">
      <defs>
       <path d="M 0 0 
L 0 3.5 
" id="mfdf4b3d071" style="stroke:#000000;stroke-width:0.8;"/>
      </defs>
      <g>
       <use style="stroke:#000000;stroke-width:0.8;" x="73.800255" xlink:href="#mfdf4b3d071" y="307.584"/>
      </g>
     </g>
     <g id="text_1">
      <text style="font-family:DejaVu Sans;font-size:10px;font-style:normal;font-weight:normal;text-anchor:middle;" transform="rotate(-0, 73.800255, 322.182437)" x="73.800255" y="322.182437">0.0</text>
     </g>
    </g>
    <g id="xtick_2">
     <g id="line2d_2">
      <g>
       <use style="stroke:#000000;stroke-width:0.8;" x="138.744153" xlink:href="#mfdf4b3d071" y="307.584"/>
      </g>
     </g>
     <g id="text_2">
      <text style="font-family:DejaVu Sans;font-size:10px;font-style:normal;font-weight:normal;text-anchor:middle;" transform="rotate(-0, 138.744153, 322.182437)" x="138.744153" y="322.182437">0.2</text>
     </g>
    </g>
    <g id="xtick_3">
     <g id="line2d_3">
      <g>
       <use style="stroke:#000000;stroke-width:0.8;" x="203.688051" xlink:href="#mfdf4b3d071" y="307.584"/>
      </g>
     </g>
     <g id="text_3">
      <text style="font-family:DejaVu Sans;font-size:10px;font-style:normal;font-weight:normal;text-anchor:middle;" transform="rotate(-0, 203.688051, 322.182437)" x="203.688051" y="322.182437">0.4</text>
     </g>
    </g>
    <g id="xtick_4">
     <g id="line2d_4">
      <g>
       <use style="stroke:#000000;stroke-width:0.8;" x="268.631949" xlink:href="#mfdf4b3d071" y="307.584"/>
      </g>
     </g>
     <g id="text_4">
      <text style="font-family:DejaVu Sans;font-size:10px;font-style:normal;font-weight:normal;text-anchor:middle;" transform="rotate(-0, 268.631949, 322.182437)" x="268.631949" y="322.182437">0.6</text>
     </g>
    </g>
    <g id="xtick_5">
     <g id="line2d_5">
      <g>
       <use style="stroke:#000000;stroke-width:0.8;" x="333.575847" xlink:href="#mfdf4b3d071" y="307.584"/>
      </g>
     </g>
     <g id="text_5">
      <text style="font-family:DejaVu Sans;font-size:10px;font-style:normal;font-weight:normal;text-anchor:middle;" transform="rotate(-0, 333.575847, 322.182437)" x="333.575847" y="322.182437">0.8</text>
     </g>
    </g>
    <g id="xtick_6">
     <g id="line2d_6">
      <g>
       <use style="stroke:#000000;stroke-width:0.8;" x="398.519745" xlink:href="#mfdf4b3d071" y="307.584"/>
      </g>
     </g>
     <g id="text_6">
      <text style="font-family:DejaVu Sans;font-size:10px;font-style:normal;font-weight:normal;text-anchor:middle;" transform="rotate(-0, 398.519745, 322.182437)" x="398.519745" y="322.182437">1.0</text>
     </g>
    </g>
    <g id="text_7">
     <text style="font-family:DejaVu Sans;font-size:10px;font-style:normal;font-weight:normal;text-anchor:middle;" transform="rotate(-0, 236.16, 335.860562)" x="236.16" y="335.860562">Input Coin's Heads Probability (λ)</text>
    </g>
   </g>
   <g id="matplotlib.axis_2">
    <g id="ytick_1">
     <g id="line2d_7">
      <defs>
       <path d="M 0 0 
L -3.5 0 
" id="m5ca23cfcb9" style="stroke:#000000;stroke-width:0.8;"/>
      </defs>
      <g>
       <use style="stroke:#000000;stroke-width:0.8;" x="57.6" xlink:href="#m5ca23cfcb9" y="276.193767"/>
      </g>
     </g>
     <g id="text_8">
      <text style="font-family:DejaVu Sans;font-size:10px;font-style:normal;font-weight:normal;text-anchor:end;" transform="rotate(-0, 50.6, 279.992986)" x="50.6" y="279.992986">0.4</text>
     </g>
    </g>
    <g id="ytick_2">
     <g id="line2d_8">
      <g>
       <use style="stroke:#000000;stroke-width:0.8;" x="57.6" xlink:href="#m5ca23cfcb9" y="239.089472"/>
      </g>
     </g>
     <g id="text_9">
      <text style="font-family:DejaVu Sans;font-size:10px;font-style:normal;font-weight:normal;text-anchor:end;" transform="rotate(-0, 50.6, 242.888691)" x="50.6" y="242.888691">0.5</text>
     </g>
    </g>
    <g id="ytick_3">
     <g id="line2d_9">
      <g>
       <use style="stroke:#000000;stroke-width:0.8;" x="57.6" xlink:href="#m5ca23cfcb9" y="201.985178"/>
      </g>
     </g>
     <g id="text_10">
      <text style="font-family:DejaVu Sans;font-size:10px;font-style:normal;font-weight:normal;text-anchor:end;" transform="rotate(-0, 50.6, 205.784397)" x="50.6" y="205.784397">0.6</text>
     </g>
    </g>
    <g id="ytick_4">
     <g id="line2d_10">
      <g>
       <use style="stroke:#000000;stroke-width:0.8;" x="57.6" xlink:href="#m5ca23cfcb9" y="164.880883"/>
      </g>
     </g>
     <g id="text_11">
      <text style="font-family:DejaVu Sans;font-size:10px;font-style:normal;font-weight:normal;text-anchor:end;" transform="rotate(-0, 50.6, 168.680102)" x="50.6" y="168.680102">0.7</text>
     </g>
    </g>
    <g id="ytick_5">
     <g id="line2d_11">
      <g>
       <use style="stroke:#000000;stroke-width:0.8;" x="57.6" xlink:href="#m5ca23cfcb9" y="127.776589"/>
      </g>
     </g>
     <g id="text_12">
      <text style="font-family:DejaVu Sans;font-size:10px;font-style:normal;font-weight:normal;text-anchor:end;" transform="rotate(-0, 50.6, 131.575808)" x="50.6" y="131.575808">0.8</text>
     </g>
    </g>
    <g id="ytick_6">
     <g id="line2d_12">
      <g>
       <use style="stroke:#000000;stroke-width:0.8;" x="57.6" xlink:href="#m5ca23cfcb9" y="90.672294"/>
      </g>
     </g>
     <g id="text_13">
      <text style="font-family:DejaVu Sans;font-size:10px;font-style:normal;font-weight:normal;text-anchor:end;" transform="rotate(-0, 50.6, 94.471513)" x="50.6" y="94.471513">0.9</text>
     </g>
    </g>
    <g id="ytick_7">
     <g id="line2d_13">
      <g>
       <use style="stroke:#000000;stroke-width:0.8;" x="57.6" xlink:href="#m5ca23cfcb9" y="53.568"/>
      </g>
     </g>
     <g id="text_14">
      <text style="font-family:DejaVu Sans;font-size:10px;font-style:normal;font-weight:normal;text-anchor:end;" transform="rotate(-0, 50.6, 57.367219)" x="50.6" y="57.367219">1.0</text>
     </g>
    </g>
    <g id="text_15">
     <text style="font-family:DejaVu Sans;font-size:10px;font-style:normal;font-weight:normal;text-anchor:middle;" transform="rotate(-90, 28.617187, 174.528)" x="28.617187" y="174.528">Simulated Mean / Function Value</text>
    </g>
   </g>
   <g id="line2d_14">
    <path clip-path="url(#p96ad9d329b)" d="M 73.832727 53.605102 
L 77.112066 57.333031 
L 80.391405 61.0235 
L 83.670744 64.676888 
L 86.950083 68.293565 
L 90.229421 71.873901 
L 93.50876 75.418262 
L 96.788099 78.927008 
L 100.067438 82.400497 
L 103.346777 85.839085 
L 106.626116 89.243121 
L 109.905455 92.612953 
L 113.184793 95.948924 
L 116.464132 99.251374 
L 119.743471 102.520641 
L 123.02281 105.757058 
L 126.302149 108.960955 
L 129.581488 112.132659 
L 132.860826 115.272493 
L 136.140165 118.380777 
L 139.419504 121.457829 
L 142.698843 124.503961 
L 145.978182 127.519486 
L 149.257521 130.504711 
L 152.53686 133.459939 
L 155.816198 136.385473 
L 159.095537 139.28161 
L 162.374876 142.148647 
L 165.654215 144.986875 
L 168.933554 147.796584 
L 172.212893 150.578061 
L 175.492231 153.331589 
L 178.77157 156.057449 
L 182.050909 158.755919 
L 185.330248 161.427275 
L 188.609587 164.071788 
L 191.888926 166.689729 
L 195.168264 169.281364 
L 198.447603 171.846958 
L 201.726942 174.386773 
L 205.006281 176.901067 
L 208.28562 179.390097 
L 211.564959 181.854117 
L 214.844298 184.293378 
L 218.123636 186.708129 
L 221.402975 189.098616 
L 224.682314 191.465083 
L 227.961653 193.807771 
L 231.240992 196.12692 
L 234.520331 198.422765 
L 237.799669 200.695542 
L 241.079008 202.945481 
L 244.358347 205.172813 
L 247.637686 207.377763 
L 250.917025 209.560558 
L 254.196364 211.721421 
L 257.475702 213.86057 
L 260.755041 215.978225 
L 264.03438 218.074601 
L 267.313719 220.149913 
L 270.593058 222.204371 
L 273.872397 224.238186 
L 277.151736 226.251565 
L 280.431074 228.244713 
L 283.710413 230.217833 
L 286.989752 232.171128 
L 290.269091 234.104795 
L 293.54843 236.019032 
L 296.827769 237.914035 
L 300.107107 239.789997 
L 303.386446 241.647109 
L 306.665785 243.48556 
L 309.945124 245.305538 
L 313.224463 247.107228 
L 316.503802 248.890815 
L 319.78314 250.65648 
L 323.062479 252.404404 
L 326.341818 254.134763 
L 329.621157 255.847737 
L 332.900496 257.543497 
L 336.179835 259.222219 
L 339.459174 260.884072 
L 342.738512 262.529227 
L 346.017851 264.157851 
L 349.29719 265.770111 
L 352.576529 267.36617 
L 355.855868 268.946191 
L 359.135207 270.510337 
L 362.414545 272.058765 
L 365.693884 273.591635 
L 368.973223 275.109102 
L 372.252562 276.611321 
L 375.531901 278.098446 
L 378.81124 279.570628 
L 382.090579 281.028017 
L 385.369917 282.470763 
L 388.649256 283.899011 
L 391.928595 285.312908 
L 395.207934 286.712597 
L 398.487273 288.098223 
" style="fill:none;stroke:#1f77b4;stroke-linecap:square;stroke-width:1.5;"/>
   </g>
   <g id="line2d_15">
    <path clip-path="url(#p96ad9d329b)" d="M 73.832727 53.568 
L 77.112066 59.504687 
L 80.391405 60.988859 
L 83.670744 63.957202 
L 86.950083 67.667632 
L 90.229421 67.667632 
L 93.50876 83.251436 
L 96.788099 78.056834 
L 100.067438 80.283092 
L 103.346777 87.703951 
L 106.626116 89.188123 
L 109.905455 90.672294 
L 113.184793 95.12481 
L 116.464132 98.835239 
L 119.743471 104.02984 
L 123.02281 109.224442 
L 126.302149 115.161129 
L 129.581488 116.645301 
L 132.860826 123.324074 
L 136.140165 121.839902 
L 139.419504 113.676957 
L 142.698843 127.034503 
L 145.978182 128.518675 
L 149.257521 131.487018 
L 152.53686 126.292417 
L 155.816198 130.002847 
L 159.095537 138.165791 
L 162.374876 139.649963 
L 165.654215 132.97119 
L 168.933554 132.97119 
L 172.212893 158.944196 
L 175.492231 167.849227 
L 178.77157 149.29708 
L 182.050909 156.717939 
L 185.330248 151.523337 
L 188.609587 174.528 
L 191.888926 159.686282 
L 195.168264 178.238429 
L 198.447603 178.238429 
L 201.726942 170.817571 
L 205.006281 178.980515 
L 208.28562 196.790577 
L 211.564959 184.917202 
L 214.844298 181.206773 
L 218.123636 196.790577 
L 221.402975 195.306405 
L 224.682314 187.885546 
L 227.961653 191.595975 
L 231.240992 184.175117 
L 234.520331 195.306405 
L 237.799669 197.532663 
L 241.079008 211.632294 
L 244.358347 211.632294 
L 247.637686 210.148123 
L 250.917025 208.663951 
L 254.196364 210.148123 
L 257.475702 225.731926 
L 260.755041 222.021497 
L 264.03438 215.342724 
L 267.313719 210.890209 
L 270.593058 231.668613 
L 273.872397 214.600638 
L 277.151736 219.053153 
L 280.431074 220.537325 
L 283.710413 222.021497 
L 286.989752 246.510331 
L 290.269091 236.863215 
L 293.54843 236.121129 
L 296.827769 236.863215 
L 300.107107 247.252417 
L 303.386446 239.831558 
L 306.665785 246.510331 
L 309.945124 257.64162 
L 313.224463 233.894871 
L 316.503802 250.962847 
L 319.78314 265.804564 
L 323.062479 248.736589 
L 326.341818 262.094135 
L 329.621157 259.125791 
L 332.900496 257.64162 
L 336.179835 277.677939 
L 339.459174 268.030822 
L 342.738512 270.25708 
L 346.017851 250.962847 
L 349.29719 262.836221 
L 352.576529 295.488 
L 355.855868 258.383706 
L 359.135207 276.935853 
L 362.414545 278.420025 
L 365.693884 276.935853 
L 368.973223 268.772908 
L 372.252562 277.677939 
L 375.531901 289.551313 
L 378.81124 274.709595 
L 382.090579 284.356712 
L 385.369917 278.420025 
L 388.649256 280.646282 
L 391.928595 277.677939 
L 395.207934 291.035485 
L 398.487273 288.809227 
" style="fill:none;stroke:#ff7f0e;stroke-linecap:square;stroke-width:1.5;"/>
   </g>
   <g id="patch_3">
    <path d="M 57.6 307.584 
L 57.6 41.472 
" style="fill:none;stroke:#000000;stroke-linecap:square;stroke-linejoin:miter;stroke-width:0.8;"/>
   </g>
   <g id="patch_4">
    <path d="M 414.72 307.584 
L 414.72 41.472 
" style="fill:none;stroke:#000000;stroke-linecap:square;stroke-linejoin:miter;stroke-width:0.8;"/>
   </g>
   <g id="patch_5">
    <path d="M 57.6 307.584 
L 414.72 307.584 
" style="fill:none;stroke:#000000;stroke-linecap:square;stroke-linejoin:miter;stroke-width:0.8;"/>
   </g>
   <g id="patch_6">
    <path d="M 57.6 41.472 
L 414.72 41.472 
" style="fill:none;stroke:#000000;stroke-linecap:square;stroke-linejoin:miter;stroke-width:0.8;"/>
   </g>
   <g id="text_16">
    <text style="font-family:DejaVu Sans;font-size:12px;font-style:normal;font-weight:normal;text-anchor:middle;" transform="rotate(-0, 236.16, 35.472)" x="236.16" y="35.472">Expected Value in exp(-x) (Alt. Series) Algorithm</text>
   </g>
   <g id="legend_1">
    <g id="patch_7">
     <path d="M 181.562187 78.82825 
L 407.72 78.82825 
Q 409.72 78.82825 409.72 76.82825 
L 409.72 48.472 
Q 409.72 46.472 407.72 46.472 
L 181.562187 46.472 
Q 179.562187 46.472 179.562187 48.472 
L 179.562187 76.82825 
Q 179.562187 78.82825 181.562187 78.82825 
z
" style="fill:#ffffff;opacity:0.8;stroke:#cccccc;stroke-linejoin:miter;"/>
    </g>
    <g id="line2d_16">
     <path d="M 183.562187 54.570437 
L 203.562187 54.570437 
" style="fill:none;stroke:#1f77b4;stroke-linecap:square;stroke-width:1.5;"/>
    </g>
    <g id="line2d_17"/>
    <g id="text_17">
     <text style="font-family:DejaVu Sans;font-size:10px;font-style:normal;font-weight:normal;text-anchor:start;" transform="rotate(-0, 211.562187, 58.070437)" x="211.562187" y="58.070437">exp(-x)</text>
    </g>
    <g id="line2d_18">
     <path d="M 183.562187 69.248562 
L 203.562187 69.248562 
" style="fill:none;stroke:#ff7f0e;stroke-linecap:square;stroke-width:1.5;"/>
    </g>
    <g id="line2d_19"/>
    <g id="text_18">
     <text style="font-family:DejaVu Sans;font-size:10px;font-style:normal;font-weight:normal;text-anchor:start;" transform="rotate(-0, 211.562187, 72.748562)" x="211.562187" y="72.748562">Simulated Mean of exp(-x) (Alt. Series)</text>
    </g>
   </g>
  </g>
 </g>
 <defs>
  <clipPath id="p96ad9d329b">
   <rect height="266.112" width="357.12" x="57.6" y="41.472"/>
  </clipPath>
 </defs>
</svg>

<svg height="460.8" viewBox="0 0 460.8 345.6" width="614.4" xmlns="http://www.w3.org/2000/svg" xmlns:xlink="http://www.w3.org/1999/xlink"><defs><style>*{stroke-linecap:butt;stroke-linejoin:round}</style></defs><g id="figure_1"><path d="M0 345.6h460.8V0H0z" fill="#fff" id="patch_1"/><g id="axes_1"><path d="M57.6 307.584h357.12V41.472H57.6z" fill="#fff" id="patch_2"/><g id="matplotlib.axis_1"><g id="xtick_1"><g id="line2d_1"><defs><path d="M0 0v3.5" id="mfdf4b3d071" stroke="#000" stroke-width=".8"/></defs><use x="73.8" xlink:href="#mfdf4b3d071" y="307.584" stroke="#000" stroke-width=".8"/></g><text x="73.8" y="322.182" font-family="DejaVu Sans" font-size="10" font-weight="400" text-anchor="middle" id="text_1">0.0</text></g><g id="xtick_2"><use x="138.744" xlink:href="#mfdf4b3d071" y="307.584" stroke="#000" stroke-width=".8" id="line2d_2"/><text x="138.744" y="322.182" font-family="DejaVu Sans" font-size="10" font-weight="400" text-anchor="middle" id="text_2">0.2</text></g><g id="xtick_3"><use x="203.688" xlink:href="#mfdf4b3d071" y="307.584" stroke="#000" stroke-width=".8" id="line2d_3"/><text x="203.688" y="322.182" font-family="DejaVu Sans" font-size="10" font-weight="400" text-anchor="middle" id="text_3">0.4</text></g><g id="xtick_4"><use x="268.632" xlink:href="#mfdf4b3d071" y="307.584" stroke="#000" stroke-width=".8" id="line2d_4"/><text x="268.632" y="322.182" font-family="DejaVu Sans" font-size="10" font-weight="400" text-anchor="middle" id="text_4">0.6</text></g><g id="xtick_5"><use x="333.576" xlink:href="#mfdf4b3d071" y="307.584" stroke="#000" stroke-width=".8" id="line2d_5"/><text x="333.576" y="322.182" font-family="DejaVu Sans" font-size="10" font-weight="400" text-anchor="middle" id="text_5">0.8</text></g><g id="xtick_6"><use x="398.52" xlink:href="#mfdf4b3d071" y="307.584" stroke="#000" stroke-width=".8" id="line2d_6"/><text x="398.52" y="322.182" font-family="DejaVu Sans" font-size="10" font-weight="400" text-anchor="middle" id="text_6">1.0</text></g><text x="236.16" y="335.861" font-family="DejaVu Sans" font-size="10" font-weight="400" text-anchor="middle" id="text_7">Input Coin&apos;s Heads Probability (λ)</text></g><g id="matplotlib.axis_2"><g id="ytick_1"><g id="line2d_7"><defs><path d="M0 0h-3.5" id="m5ca23cfcb9" stroke="#000" stroke-width=".8"/></defs><use x="57.6" xlink:href="#m5ca23cfcb9" y="276.194" stroke="#000" stroke-width=".8"/></g><text x="50.6" y="279.993" font-family="DejaVu Sans" font-size="10" font-weight="400" text-anchor="end" id="text_8">0.4</text></g><g id="ytick_2"><use x="57.6" xlink:href="#m5ca23cfcb9" y="239.089" stroke="#000" stroke-width=".8" id="line2d_8"/><text x="50.6" y="242.889" font-family="DejaVu Sans" font-size="10" font-weight="400" text-anchor="end" id="text_9">0.5</text></g><g id="ytick_3"><use x="57.6" xlink:href="#m5ca23cfcb9" y="201.985" stroke="#000" stroke-width=".8" id="line2d_9"/><text x="50.6" y="205.784" font-family="DejaVu Sans" font-size="10" font-weight="400" text-anchor="end" id="text_10">0.6</text></g><g id="ytick_4"><use x="57.6" xlink:href="#m5ca23cfcb9" y="164.881" stroke="#000" stroke-width=".8" id="line2d_10"/><text x="50.6" y="168.68" font-family="DejaVu Sans" font-size="10" font-weight="400" text-anchor="end" id="text_11">0.7</text></g><g id="ytick_5"><use x="57.6" xlink:href="#m5ca23cfcb9" y="127.777" stroke="#000" stroke-width=".8" id="line2d_11"/><text x="50.6" y="131.576" font-family="DejaVu Sans" font-size="10" font-weight="400" text-anchor="end" id="text_12">0.8</text></g><g id="ytick_6"><use x="57.6" xlink:href="#m5ca23cfcb9" y="90.672" stroke="#000" stroke-width=".8" id="line2d_12"/><text x="50.6" y="94.472" font-family="DejaVu Sans" font-size="10" font-weight="400" text-anchor="end" id="text_13">0.9</text></g><g id="ytick_7"><use x="57.6" xlink:href="#m5ca23cfcb9" y="53.568" stroke="#000" stroke-width=".8" id="line2d_13"/><text x="50.6" y="57.367" font-family="DejaVu Sans" font-size="10" font-weight="400" text-anchor="end" id="text_14">1.0</text></g><text transform="rotate(-90 28.617 174.528)" x="28.617" y="174.528" font-family="DejaVu Sans" font-size="10" font-weight="400" text-anchor="middle" id="text_15">Simulated Mean / Function Value</text></g><path clip-path="url(#p96ad9d329b)" d="M73.833 53.605l3.28 3.728 3.278 3.69 3.28 3.654 3.28 3.617 3.278 3.58 3.28 3.544 3.28 3.509 3.278 3.473 3.28 3.44 3.28 3.403 3.278 3.37 3.28 3.336 3.28 3.302 3.278 3.27 3.28 3.236 3.28 3.204 3.278 3.172 3.28 3.14 3.28 3.108 3.279 3.077 3.279 3.046 3.28 3.015 3.279 2.986 3.279 2.955 3.28 2.925 3.279 2.897 3.279 2.867 3.28 2.838 3.279 2.81 3.279 2.781 3.28 2.754 3.279 2.725 3.279 2.699 3.28 2.671 3.279 2.645 3.279 2.618 3.28 2.591 3.279 2.566 3.279 2.54 3.28 2.514 3.279 2.49 3.279 2.463 3.28 2.44 3.279 2.414 3.279 2.39 3.28 2.367 3.279 2.343 3.279 2.319 3.28 2.296 3.279 2.273 3.279 2.25 3.28 2.227 3.279 2.205 3.279 2.183 3.28 2.16 3.279 2.14 3.279 2.117 3.28 2.097 3.279 2.075 3.28 2.054 3.278 2.034 3.28 2.014 3.28 1.993 3.278 1.973 3.28 1.953 3.28 1.934 3.278 1.914 3.28 1.895 3.28 1.876 3.278 1.857 3.28 1.839 3.28 1.82 3.278 1.801 3.28 1.784 3.28 1.765 3.278 1.748 3.28 1.73 3.28 1.714 3.278 1.695 3.28 1.68 3.28 1.661 3.279 1.645 3.279 1.629 3.28 1.612 3.279 1.596 3.279 1.58 3.28 1.564 3.279 1.549 3.279 1.533 3.28 1.517 3.279 1.502 3.279 1.487 3.28 1.473 3.279 1.457 3.279 1.443 3.28 1.428 3.279 1.414 3.279 1.4 3.28 1.385" fill="none" stroke="#1f77b4" stroke-linecap="square" stroke-width="1.5" id="line2d_14"/><path clip-path="url(#p96ad9d329b)" d="M73.833 53.568l3.28 5.937 3.278 1.484 3.28 2.968 3.28 3.71h3.278l3.28 15.584 3.28-5.194 3.278 2.226 3.28 7.421 3.28 1.484 3.278 1.484 3.28 4.453 3.28 3.71 3.278 5.195 3.28 5.194 3.28 5.937 3.278 1.484 3.28 6.68 3.28-1.485 3.279-8.163 3.279 13.358 3.28 1.484 3.279 2.968 3.279-5.195 3.28 3.71 3.279 8.164 3.279 1.484 3.28-6.679h3.279l3.279 25.973 3.28 8.905 3.279-18.552 3.279 7.42 3.28-5.194 3.279 23.005 3.279-14.842 3.28 18.552h3.279l3.279-7.42 3.28 8.163 3.279 17.81 3.279-11.874 3.28-3.71 3.279 15.584 3.279-1.485 3.28-7.42 3.279 3.71 3.279-7.42 3.28 11.13 3.279 2.227 3.279 14.1h3.28l3.279-1.485 3.279-1.484 3.28 1.484 3.279 15.584 3.279-3.71 3.28-6.68 3.279-4.452 3.28 20.779 3.278-17.068 3.28 4.452 3.28 1.484 3.278 1.484 3.28 24.49 3.28-9.648 3.278-.742 3.28.742 3.28 10.39 3.278-7.421 3.28 6.678 3.28 11.132 3.278-23.747 3.28 17.068 3.28 14.842 3.278-17.068 3.28 13.357 3.28-2.968 3.278-1.484 3.28 20.036 3.28-9.647 3.279 2.226 3.279-19.294 3.28 11.873 3.279 32.652 3.279-37.104 3.28 18.552 3.279 1.484 3.279-1.484 3.28-8.163 3.279 8.905 3.279 11.873 3.28-14.841 3.279 9.647 3.279-5.937 3.28 2.226 3.279-2.968 3.279 13.357 3.28-2.226" fill="none" stroke="#ff7f0e" stroke-linecap="square" stroke-width="1.5" id="line2d_15"/><path d="M57.6 307.584V41.472" fill="none" stroke="#000" stroke-linecap="square" stroke-width=".8" id="patch_3"/><path d="M414.72 307.584V41.472" fill="none" stroke="#000" stroke-linecap="square" stroke-width=".8" id="patch_4"/><path d="M57.6 307.584h357.12" fill="none" stroke="#000" stroke-linecap="square" stroke-width=".8" id="patch_5"/><path d="M57.6 41.472h357.12" fill="none" stroke="#000" stroke-linecap="square" stroke-width=".8" id="patch_6"/><text x="236.16" y="35.472" font-family="DejaVu Sans" font-size="12" font-weight="400" text-anchor="middle" id="text_16">Expected Value in exp(-x) (Alt. Series) Algorithm</text><g id="legend_1"><path d="M181.562 78.828H407.72q2 0 2-2V48.472q0-2-2-2H181.562q-2 0-2 2v28.356q0 2 2 2z" fill="#fff" opacity=".8" stroke="#ccc" id="patch_7"/><path d="M183.562 54.57h20" fill="none" stroke="#1f77b4" stroke-linecap="square" stroke-width="1.5" id="line2d_16"/><text x="211.562" y="58.07" font-family="DejaVu Sans" font-size="10" font-weight="400" id="text_17">exp(-x)</text><path d="M183.562 69.249h20" fill="none" stroke="#ff7f0e" stroke-linecap="square" stroke-width="1.5" id="line2d_18"/><text x="211.562" y="72.749" font-family="DejaVu Sans" font-size="10" font-weight="400" id="text_18">Simulated Mean of exp(-x) (Alt. Series)</text></g></g></g><defs><clipPath id="p96ad9d329b"><path d="M57.6 41.472h357.12v266.112H57.6z"/></clipPath></defs></svg>
